DSView/icons/light/measure.svg

<?xml version="1.0" encoding="UTF-8" standalone="no"?>
<!-- 由 Microsoft Visio, SVG Export 生成 measure.svg 页-1 -->

<svg
   xmlns:v="http://schemas.microsoft.com/visio/2003/SVGExtensions/"
   xmlns:dc="http://purl.org/dc/elements/1.1/"
   xmlns:cc="http://creativecommons.org/ns#"
   xmlns:rdf="http://www.w3.org/1999/02/22-rdf-syntax-ns#"
   xmlns:svg="http://www.w3.org/2000/svg"
   xmlns="http://www.w3.org/2000/svg"
   xmlns:sodipodi="http://sodipodi.sourceforge.net/DTD/sodipodi-0.dtd"
   xmlns:inkscape="http://www.inkscape.org/namespaces/inkscape"
   width="512"
   height="512"
   viewBox="0 0 384.00023 384.00002"
   xml:space="preserve"
   class="st4"
   version="1.1"
   id="svg40"
   sodipodi:docname="measure.svg"
   style="font-size:12px;overflow:visible;color-interpolation-filters:sRGB;fill:none;fill-rule:evenodd;stroke-linecap:square;stroke-miterlimit:3"
   inkscape:version="0.92.4 (5da689c313, 2019-01-14)"><metadata
   id="metadata46"><rdf:RDF><cc:Work
       rdf:about=""><dc:format>image/svg+xml</dc:format><dc:type
         rdf:resource="http://purl.org/dc/dcmitype/StillImage" /><dc:title></dc:title></cc:Work></rdf:RDF></metadata><defs
   id="defs44" /><sodipodi:namedview
   pagecolor="#ffffff"
   bordercolor="#666666"
   borderopacity="1"
   objecttolerance="10"
   gridtolerance="10"
   guidetolerance="10"
   inkscape:pageopacity="0"
   inkscape:pageshadow="2"
   inkscape:window-width="793"
   inkscape:window-height="480"
   id="namedview42"
   showgrid="false"
   units="px"
   inkscape:zoom="0.62937363"
   inkscape:cx="255.99985"
   inkscape:cy="187.488"
   inkscape:window-x="0"
   inkscape:window-y="0"
   inkscape:window-maximized="0"
   inkscape:current-layer="svg40" />
	<v:documentProperties
   v:langID="2052"
   v:viewMarkup="false" />

	<style
   type="text/css"
   id="style2">
	<![CDATA[
		.st1 {fill:#2a2a2a;stroke:none;stroke-linecap:butt;stroke-width:13.0108}
		.st2 {fill:#2a2a2a;stroke:none;stroke-linecap:butt;stroke-width:20.4443}
		.st3 {fill:#2a2a2a;stroke:none;stroke-linecap:round;stroke-linejoin:round;stroke-width:0.5}
		.st4 {fill:none;fill-rule:evenodd;font-size:12px;overflow:visible;stroke-linecap:square;stroke-miterlimit:3}
	]]>
	</style>

	<g
   v:mID="0"
   v:index="1"
   v:groupContext="foregroundPage"
   id="g38"
   transform="translate(0.6615625,43.995397)">
		<title
   id="title4">页-1</title>
		<v:pageProperties
   v:drawingScale="0.0393701"
   v:pageScale="0.0393701"
   v:drawingUnits="24"
   v:shadowOffsetX="9"
   v:shadowOffsetY="-9" />
		<g
   id="group350-1"
   v:mID="350"
   v:groupContext="group">
			<title
   id="title6">工作表.350</title>
			<g
   id="group482-2"
   transform="translate(48.189,-5.66929)"
   v:mID="482"
   v:groupContext="group">
				<title
   id="title8">工作表.482</title>
				<g
   id="group461-3"
   transform="translate(0,-1.90966)"
   v:mID="461"
   v:groupContext="group">
					<title
   id="title10">工作表.461</title>
					<g
   id="shape455-4"
   v:mID="455"
   v:groupContext="shape"
   transform="matrix(-1,0,0,1,286.299,-11.5395)">
						<title
   id="title12">工作表.455</title>
						<path
   d="m 33.73,248.45 h 112.86 l 5.31,5.3 H 27.06 l 0.69,-3.21 c 6.4,-29.57 33,-51.02 63.26,-51.02 2.4,0 4.76,0.18 7.1,0.44 l 6.49,6.5 c -4.39,-1.05 -8.94,-1.63 -13.59,-1.63 -26.68,0 -50.25,18.16 -57.28,43.62 z m 137.32,26.28 h -5.48 v -7.29 l -0.48,-0.48 h -1.35 v 7.78 h -4.97 v -7.78 h -1.83 v 7.78 h -4.61 v -15.69 h -1.84 v 15.69 h -4.31 v -7.78 h -1.84 v 7.78 h -5.48 v -7.78 h -1.83 v 7.78 h -4.96 v -7.78 h -1.84 v 7.78 h -5.05 v -15.69 h -1.84 v 15.69 h -4.96 v -7.78 h -1.84 v 7.78 h -5.48 v -7.78 h -1.82 v 7.78 h -4.97 v -7.78 h -1.84 v 7.78 h -5.04 v -15.69 h -1.83 v 15.69 H 91 v -7.78 h -1.84 v 7.78 h -5.48 v -7.78 h -1.84 v 7.78 h -4.96 v -7.78 h -1.84 v 7.78 h -4.6 v -15.68 l -1.83,-0.01 v 15.69 H 64.3 v -7.78 h -1.84 v 7.78 h -5.48 v -7.78 h -1.83 v 7.78 h -4.96 v -7.78 h -1.84 v 7.78 h -5.04 v -15.69 l -1.84,0.01 v 15.68 h -4.96 v -7.78 h -1.84 v 7.78 h -5.48 v -7.78 h -1.84 v 7.78 h -4.96 v -7.78 h -1.84 v 7.78 h -5.04 v -15.68 h -1.83 v 15.68 H 5.3 v -10.48 c 0,-42.76 31.5,-78.2 72.51,-84.59 l -4.66,-4.65 C 31.49,183.34 0,220.17 0,264.25 v 15.79 h 177.58 l -6.53,-7.12 z m -38.3,-123.04 -7.41,-7.43 2.37,-2.37 3.63,3.65 0.88,-0.88 -3.64,-3.65 2.63,-2.62 3.64,3.65 0.88,-0.88 -3.64,-3.65 2.38,-2.38 3.64,3.65 0.87,-0.87 -3.65,-3.65 2.43,-2.42 7.41,7.43 0.89,-0.89 -7.44,-7.41 1.67,-1.66 3.63,3.65 0.89,-0.89 -3.64,-3.65 2.62,-2.61 3.64,3.65 0.88,-0.89 -3.65,-3.64 2.38,-2.37 3.64,3.64 0.88,-0.87 -3.64,-3.64 2.2,-2.22 7.42,7.43 0.88,-0.88 -7.42,-7.41 2.05,-2.07 3.65,3.65 0.89,-0.88 -3.65,-3.65 2.63,-2.62 3.65,3.64 0.87,-0.88 -3.65,-3.64 2.38,-2.38 3.64,3.65 0.88,-0.88 -3.64,-3.64 2.41,-2.41 7.43,7.42 0.88,-0.88 -7.43,-7.42 2.37,-2.36 3.64,3.64 0.89,-0.88 -3.64,-3.65 2.61,-2.62 3.64,3.65 0.89,-0.89 -3.65,-3.64 2.37,-2.37 3.65,3.65 0.88,-0.89 -3.65,-3.66 2.41,-2.41 7.42,7.42 0.89,-0.88 -7.43,-7.42 8.18,-8.17 v 121.39 l 4.83,4.83 V 78.3 c 0,-0.97 -0.58,-1.86 -1.49,-2.24 -0.9,-0.37 -1.94,-0.16 -2.62,0.53 l -64.83,64.81 10.84,10.85 z m 38.21,39.34 v -66.08 c 0,-0.97 -0.58,-1.86 -1.49,-2.22 -0.91,-0.38 -1.93,-0.18 -2.64,0.52 l -31.82,31.83 3.42,3.42 27.7,-27.71 v 55.41 z m 48.45,59.05 -29.46,29.46 c -1.69,1.69 -4.44,1.69 -6.13,-0.01 L 59.36,155.09 c -1.69,-1.7 -1.7,-4.44 0,-6.13 L 88.82,119.5 c 1.69,-1.7 4.43,-1.7 6.13,0 L 219.4,243.96 c 1.7,1.69 1.7,4.43 0.01,6.12 z m -2.9,-3.06 -124.61,-124.61 -29.62,29.62 7.97,7.98 22.3,-22.29 2.58,2.57 -22.3,22.3 7.13,7.13 11.15,-11.15 2.58,2.59 -11.14,11.15 7,7 11.15,-11.15 2.59,2.6 -11.15,11.14 7.73,7.75 11.16,-11.16 2.58,2.59 -11.15,11.15 7.01,6.99 22.3,-22.28 2.58,2.58 -22.29,22.31 7.12,7.11 11.15,-11.14 2.59,2.58 -11.15,11.15 7,7.01 11.15,-11.15 2.59,2.59 -11.15,11.14 7.73,7.75 11.16,-11.16 2.59,2.61 -11.14,11.15 6.08,6.07 22.28,-22.29 2.6,2.59 -22.3,22.3 6.51,6.51 11.15,-11.15 2.59,2.59 -11.15,11.15 7.01,7 11.15,-11.14 2.59,2.59 -11.15,11.15 7.74,7.74 11.16,-11.15 2.58,2.59 -11.14,11.14 7.47,7.48 z"
   class="st1"
   id="path14"
   inkscape:connector-curvature="0"
   style="fill:#2a2a2a;stroke:none;stroke-width:13.01080036;stroke-linecap:butt" />
					</g>
					<g
   id="group456-6"
   transform="translate(0,-14.8131)"
   v:mID="456"
   v:groupContext="group">
						<title
   id="title17">工作表.456</title>
						<g
   id="shape457-7"
   v:mID="457"
   v:groupContext="shape">
							<title
   id="title19">工作表.457</title>
							<path
   d="m 134.45,243.34 1.46,-17.5 -22.87,-62.18 h 12.68 v 10.03 h 6.19 v -26.24 h -6.19 v 10.03 H 110.77 L 95.95,117.19 c 1.58,-3.56 2.48,-7.48 2.48,-11.63 C 98.43,90.92 87.54,79 73.45,77.08 V 42.84 H 65.7 v 34.24 c -14.09,1.9 -24.99,13.84 -24.99,28.48 0,5.85 1.76,11.28 4.77,15.83 L 32.21,157.47 H 16.64 v -10.03 h -6.2 v 26.24 h 6.2 V 163.65 H 29.93 L 7.06,225.84 8.51,243.33 0,281.23 19.14,247.7 l 13.75,-12.88 38.58,-98.75 38.6,98.75 13.74,12.88 19.14,33.53 z M 70.02,125.56 c -11.02,0 -19.96,-8.92 -19.96,-19.95 0,-11.01 8.94,-19.94 19.96,-19.94 11.02,0 19.95,8.93 19.95,19.94 0.01,11.03 -8.93,19.95 -19.95,19.95 z"
   class="st2"
   id="path21"
   inkscape:connector-curvature="0"
   style="fill:#2a2a2a;stroke:none;stroke-width:20.4442997;stroke-linecap:butt" />
						</g>
						<g
   id="shape458-9"
   v:mID="458"
   v:groupContext="shape"
   transform="translate(60.1901,-165.511)">
							<title
   id="title24">工作表.458</title>
							<circle
   cx="9.8272896"
   cy="271.40399"
   class="st2"
   id="ellipse26"
   r="9.8272896"
   style="fill:#2a2a2a;stroke:none;stroke-width:20.4442997;stroke-linecap:butt" />
						</g>
					</g>
				</g>
				<g
   id="shape481-11"
   v:mID="481"
   v:groupContext="shape"
   transform="translate(9.4252)">
					<title
   id="title31">工作表.481</title>
					<path
   d="m 0,267.08 a 707.919,308.669 -90.02 0 0 122.88,-0.03 l -2.12,-4.34 A 687.932,299.955 89.27 0 1 1.98,262.77 Z"
   class="st3"
   id="path33"
   inkscape:connector-curvature="0"
   style="fill:#2a2a2a;stroke:none;stroke-width:0.5;stroke-linecap:round;stroke-linejoin:round" />
				</g>
			</g>
		</g>
	</g>
</svg>

<?xml version="1.0" encoding="UTF-8" standalone="no"?>
<!DOCTYPE svg PUBLIC "-//W3C//DTD SVG 1.1//EN" "http://www.w3.org/Graphics/SVG/1.1/DTD/svg11.dtd">
<!-- 由 Microsoft Visio, SVG Export 生成 measure.svg 页-1 -->
<svg xmlns="http://www.w3.org/2000/svg" xmlns:xlink="http://www.w3.org/1999/xlink" xmlns:ev="http://www.w3.org/2001/xml-events"
		xmlns:v="http://schemas.microsoft.com/visio/2003/SVGExtensions/" width="5.33333in" height="3.906in"
		viewBox="0 0 384 281.232" xml:space="preserve" color-interpolation-filters="sRGB" class="st4">
	<v:documentProperties v:langID="2052" v:viewMarkup="false"/>

	<style type="text/css">
	<![CDATA[
		.st1 {fill:#2a2a2a;stroke:none;stroke-linecap:butt;stroke-width:13.0108}
		.st2 {fill:#2a2a2a;stroke:none;stroke-linecap:butt;stroke-width:20.4443}
		.st3 {fill:#2a2a2a;stroke:none;stroke-linecap:round;stroke-linejoin:round;stroke-width:0.5}
		.st4 {fill:none;fill-rule:evenodd;font-size:12px;overflow:visible;stroke-linecap:square;stroke-miterlimit:3}
	]]>
	</style>

	<g v:mID="0" v:index="1" v:groupContext="foregroundPage">
		<title>页-1</title>
		<v:pageProperties v:drawingScale="0.0393701" v:pageScale="0.0393701" v:drawingUnits="24" v:shadowOffsetX="9"
				v:shadowOffsetY="-9"/>
		<g id="group350-1" v:mID="350" v:groupContext="group">
			<title>工作表.350</title>
			<g id="group482-2" transform="translate(48.189,-5.66929)" v:mID="482" v:groupContext="group">
				<title>工作表.482</title>
				<g id="group461-3" transform="translate(-6.39488E-14,-1.90966)" v:mID="461" v:groupContext="group">
					<title>工作表.461</title>
					<g id="shape455-4" v:mID="455" v:groupContext="shape" transform="translate(286.299,-11.5395) scale(-1,1)">
						<title>工作表.455</title>
						<path d="M33.73 248.45 L146.59 248.45 L151.9 253.75 L27.06 253.75 L27.75 250.54 C34.15 220.97 60.75 199.52
									 91.01 199.52 C93.41 199.52 95.77 199.7 98.11 199.96 L104.6 206.46 C100.21 205.41 95.66 204.83
									 91.01 204.83 C64.33 204.83 40.76 222.99 33.73 248.45 ZM171.05 274.73 L165.57 274.73 L165.57
									 267.44 L165.09 266.96 L163.74 266.96 L163.74 274.74 L158.77 274.74 L158.77 266.96 L156.94 266.96
									 L156.94 274.74 L152.33 274.74 L152.33 259.05 L150.49 259.05 L150.49 274.74 L146.18 274.74 L146.18
									 266.96 L144.34 266.96 L144.34 274.74 L138.86 274.74 L138.86 266.96 L137.03 266.96 L137.03 274.74
									 L132.07 274.74 L132.07 266.96 L130.23 266.96 L130.23 274.74 L125.18 274.74 L125.18 259.05 L123.34
									 259.05 L123.34 274.74 L118.38 274.74 L118.38 266.96 L116.54 266.96 L116.54 274.74 L111.06 274.74
									 L111.06 266.96 L109.24 266.96 L109.24 274.74 L104.27 274.74 L104.27 266.96 L102.43 266.96 L102.43
									 274.74 L97.39 274.74 L97.39 259.05 L95.56 259.05 L95.56 274.74 L91 274.74 L91 266.96 L89.16
									 266.96 L89.16 274.74 L83.68 274.74 L83.68 266.96 L81.84 266.96 L81.84 274.74 L76.88 274.74 L76.88
									 266.96 L75.04 266.96 L75.04 274.74 L70.44 274.74 L70.44 259.06 L68.61 259.05 L68.61 274.74 L64.3
									 274.74 L64.3 266.96 L62.46 266.96 L62.46 274.74 L56.98 274.74 L56.98 266.96 L55.15 266.96 L55.15
									 274.74 L50.19 274.74 L50.19 266.96 L48.35 266.96 L48.35 274.74 L43.31 274.74 L43.31 259.05 L41.47
									 259.06 L41.47 274.74 L36.51 274.74 L36.51 266.96 L34.67 266.96 L34.67 274.74 L29.19 274.74 L29.19
									 266.96 L27.35 266.96 L27.35 274.74 L22.39 274.74 L22.39 266.96 L20.55 266.96 L20.55 274.74 L15.51
									 274.74 L15.51 259.06 L13.68 259.06 L13.68 274.74 L5.3 274.74 L5.3 264.26 C5.3 221.5 36.8 186.06
									 77.81 179.67 L73.15 175.02 C31.49 183.34 0 220.17 0 264.25 L0 280.04 L177.58 280.04 L171.05
									 272.92 L171.05 274.73 ZM132.75 151.69 L125.34 144.26 L127.71 141.89 L131.34 145.54 L132.22 144.66
									 L128.58 141.01 L131.21 138.39 L134.85 142.04 L135.73 141.16 L132.09 137.51 L134.47 135.13 L138.11
									 138.78 L138.98 137.91 L135.33 134.26 L137.76 131.84 L145.17 139.27 L146.06 138.38 L138.62 130.97
									 L140.29 129.31 L143.92 132.96 L144.81 132.07 L141.17 128.42 L143.79 125.81 L147.43 129.46 L148.31
									 128.57 L144.66 124.93 L147.04 122.56 L150.68 126.2 L151.56 125.33 L147.92 121.69 L150.12 119.47
									 L157.54 126.9 L158.42 126.02 L151 118.61 L153.05 116.54 L156.7 120.19 L157.59 119.31 L153.94
									 115.66 L156.57 113.04 L160.22 116.68 L161.09 115.8 L157.44 112.16 L159.82 109.78 L163.46 113.43
									 L164.34 112.55 L160.7 108.91 L163.11 106.5 L170.54 113.92 L171.42 113.04 L163.99 105.62 L166.36
									 103.26 L170 106.9 L170.89 106.02 L167.25 102.37 L169.86 99.75 L173.5 103.4 L174.39 102.51 L170.74
									 98.87 L173.11 96.5 L176.76 100.15 L177.64 99.26 L173.99 95.6 L176.4 93.19 L183.82 100.61 L184.71
									 99.73 L177.28 92.31 L185.46 84.14 L185.46 205.53 L190.29 210.36 L190.29 78.3 C190.29 77.33 189.71
									 76.44 188.8 76.06 C187.9 75.69 186.86 75.9 186.18 76.59 L121.35 141.4 L132.19 152.25 L132.75
									 151.69 ZM170.96 191.03 L170.96 124.95 C170.96 123.98 170.38 123.09 169.47 122.73 C168.56 122.35
									 167.54 122.55 166.83 123.25 L135.01 155.08 L138.43 158.5 L166.13 130.79 L166.13 186.2 L170.96
									 191.03 ZM219.41 250.08 L189.95 279.54 C188.26 281.23 185.51 281.23 183.82 279.53 L59.36 155.09
									 C57.67 153.39 57.66 150.65 59.36 148.96 L88.82 119.5 C90.51 117.8 93.25 117.8 94.95 119.5 L219.4
									 243.96 C221.1 245.65 221.1 248.39 219.41 250.08 ZM216.51 247.02 L91.9 122.41 L62.28 152.03 L70.25
									 160.01 L92.55 137.72 L95.13 140.29 L72.83 162.59 L79.96 169.72 L91.11 158.57 L93.69 161.16 L82.55
									 172.31 L89.55 179.31 L100.7 168.16 L103.29 170.76 L92.14 181.9 L99.87 189.65 L111.03 178.49
									 L113.61 181.08 L102.46 192.23 L109.47 199.22 L131.77 176.94 L134.35 179.52 L112.06 201.83 L119.18
									 208.94 L130.33 197.8 L132.92 200.38 L121.77 211.53 L128.77 218.54 L139.92 207.39 L142.51 209.98
									 L131.36 221.12 L139.09 228.87 L150.25 217.71 L152.84 220.32 L141.7 231.47 L147.78 237.54 L170.06
									 215.25 L172.66 217.84 L150.36 240.14 L156.87 246.65 L168.02 235.5 L170.61 238.09 L159.46 249.24
									 L166.47 256.24 L177.62 245.1 L180.21 247.69 L169.06 258.84 L176.8 266.58 L187.96 255.43 L190.54
									 258.02 L179.4 269.16 L186.87 276.64 L216.51 247.02 Z" class="st1"/>
					</g>
					<g id="group456-6" transform="translate(-1.59872E-14,-14.8131)" v:mID="456" v:groupContext="group">
						<title>工作表.456</title>
						<g id="shape457-7" v:mID="457" v:groupContext="shape">
							<title>工作表.457</title>
							<path d="M134.45 243.34 L135.91 225.84 L113.04 163.66 L125.72 163.66 L125.72 173.69 L131.91 173.69 L131.91
										 147.45 L125.72 147.45 L125.72 157.48 L110.77 157.48 L95.95 117.19 C97.53 113.63 98.43 109.71
										 98.43 105.56 C98.43 90.92 87.54 79 73.45 77.08 L73.45 42.84 L65.7 42.84 L65.7 77.08 C51.61
										 78.98 40.71 90.92 40.71 105.56 C40.71 111.41 42.47 116.84 45.48 121.39 L32.21 157.47 L16.64
										 157.47 L16.64 147.44 L10.44 147.44 L10.44 173.68 L16.64 173.68 L16.64 163.65 L29.93 163.65
										 L7.06 225.84 L8.51 243.33 L0 281.23 L19.14 247.7 L32.89 234.82 L71.47 136.07 L110.07 234.82
										 L123.81 247.7 L142.95 281.23 L134.45 243.34 ZM70.02 125.56 C59 125.56 50.06 116.64 50.06
										 105.61 C50.06 94.6 59 85.67 70.02 85.67 C81.04 85.67 89.97 94.6 89.97 105.61 C89.98 116.64
										 81.04 125.56 70.02 125.56 Z" class="st2"/>
						</g>
						<g id="shape458-9" v:mID="458" v:groupContext="shape" transform="translate(60.1901,-165.511)">
							<title>工作表.458</title>
							<ellipse cx="9.82729" cy="271.404" rx="9.82729" ry="9.82729" class="st2"/>
						</g>
					</g>
				</g>
				<g id="shape481-11" v:mID="481" v:groupContext="shape" transform="translate(9.4252,0)">
					<title>工作表.481</title>
					<path d="M-0 267.08 A707.919 308.669 -90.02 0 0 122.88 267.05 L120.76 262.71 A687.932 299.955 89.27 0 1 1.98
								 262.77 L0 267.08 Z" class="st3"/>
				</g>
			</g>
		</g>
	</g>
</svg>
